assets/images/icons/dimension.svg

<svg viewBox="0 0 36 36" fill="none" xmlns="http://www.w3.org/2000/svg">
<path d="M23.5503 13.8889L32.9682 4.53958L32.9339 9.8478C32.9339 10.0533 33.0138 10.2416 33.1736 10.4129C33.3335 10.5841 33.5161 10.6697 33.7216 10.6697H34.3038C34.5321 10.6469 34.7204 10.5727 34.8688 10.4471C35.0172 10.3215 35.1029 10.156 35.1257 9.95054V2.03958L35.0914 2.00533L35.1599 1.59437C35.1599 1.36606 35.0914 1.18341 34.9545 1.04643C34.7946 0.88661 34.612 0.806702 34.4065 0.806702L33.9956 0.840948H33.9613L26.1188 0.806702C26.0047 0.806702 25.8962 0.829533 25.7935 0.875195C25.6908 0.920857 25.6051 0.977935 25.5366 1.04643C25.4682 1.11492 25.4111 1.20054 25.3654 1.30328C25.3198 1.40602 25.2969 1.51446 25.2969 1.62862V2.17656C25.3198 2.42771 25.4225 2.62748 25.6051 2.77588C25.7878 2.92428 25.9933 2.99848 26.2216 2.99848H31.3928L22.0093 12.3478C21.7809 12.5533 21.6668 12.8101 21.6668 13.1183C21.6668 13.4266 21.7809 13.6834 22.0093 13.8889C22.3974 14.2999 22.8426 14.3569 23.3449 14.0601C23.4134 13.9916 23.4819 13.9346 23.5503 13.8889ZM11.6668 22.7245L2.24898 32.0738L2.28322 26.7656C2.28322 26.5601 2.20331 26.3718 2.0435 26.2005C1.88368 26.0293 1.70103 25.9437 1.49555 25.9437H0.879114C0.787789 25.9665 0.690758 25.9951 0.588018 26.0293C0.485278 26.0636 0.393954 26.1092 0.314045 26.1663C0.234136 26.2234 0.177059 26.2976 0.142812 26.3889C0.108566 26.4802 0.0800269 26.5715 0.0571958 26.6629V34.5738L0.0914424 34.6081L0.0229492 35.019C0.0229492 35.1332 0.0400725 35.2359 0.0743191 35.3272C0.108566 35.4186 0.159936 35.4985 0.228429 35.567C0.388246 35.7268 0.570894 35.8067 0.776374 35.8067L1.18733 35.7725H1.22158L9.09829 35.8067C9.3266 35.8067 9.52067 35.7268 9.68048 35.567C9.8403 35.4072 9.92021 35.2131 9.92021 34.9848V34.4368C9.89738 34.1857 9.79464 33.9859 9.61199 33.8375C9.42934 33.6891 9.22386 33.6149 8.99555 33.6149H3.82432L13.2079 24.2656C13.322 24.1515 13.4077 24.0316 13.4647 23.906C13.5218 23.7804 13.5503 23.6435 13.5503 23.4951C13.5503 23.3467 13.5218 23.204 13.4647 23.067C13.4077 22.93 13.322 22.8158 13.2079 22.7245C13.0709 22.5875 12.9111 22.4905 12.7284 22.4334C12.5458 22.3763 12.3574 22.3763 12.1634 22.4334C11.9693 22.4905 11.8038 22.5875 11.6668 22.7245ZM35.1257 26.6629C35.1029 26.4574 35.0172 26.2919 34.8688 26.1663C34.7204 26.0407 34.5321 25.9665 34.3038 25.9437H33.7216C33.5161 25.9437 33.3335 26.0236 33.1736 26.1834C33.0138 26.3432 32.9339 26.5373 32.9339 26.7656L32.9682 32.0738L23.5503 22.7245C23.4134 22.5875 23.2478 22.4905 23.0538 22.4334C22.8597 22.3763 22.6714 22.3763 22.4887 22.4334C22.3061 22.4905 22.1462 22.5875 22.0093 22.7245C21.7809 22.93 21.6668 23.1868 21.6668 23.4951C21.6668 23.8033 21.7809 24.0601 22.0093 24.2656L31.3928 33.6149H26.2216C26.0618 33.6149 25.9191 33.6435 25.7935 33.7005C25.6679 33.7576 25.5595 33.8546 25.4682 33.9916C25.3768 34.1286 25.3198 34.277 25.2969 34.4368V34.9848C25.2969 35.1446 25.3369 35.2873 25.4168 35.4129C25.4967 35.5384 25.5937 35.6355 25.7079 35.704C25.822 35.7725 25.959 35.8067 26.1188 35.8067L33.9613 35.7725H33.9956L34.4065 35.8067C34.612 35.8067 34.7946 35.7268 34.9545 35.567C35.0914 35.43 35.1599 35.2473 35.1599 35.019L35.0914 34.6081H35.1257V26.6629ZM3.82432 2.99848H8.99555C9.22386 2.99848 9.42934 2.92428 9.61199 2.77588C9.79464 2.62748 9.89738 2.42771 9.92021 2.17656V1.62862C9.92021 1.40031 9.8403 1.20625 9.68048 1.04643C9.52067 0.88661 9.3266 0.806702 9.09829 0.806702L1.22158 0.840948H1.18733L0.776374 0.806702C0.570894 0.806702 0.388246 0.88661 0.228429 1.04643C0.159936 1.11492 0.108566 1.19483 0.0743191 1.28615C0.0400725 1.37748 0.0229492 1.48022 0.0229492 1.59437L0.0914424 2.00533H0.0743191L0.0571958 2.03958V9.95054C0.0800269 10.156 0.165643 10.3215 0.314045 10.4471C0.462447 10.5727 0.650803 10.6469 0.879114 10.6697H1.49555C1.63254 10.6697 1.76382 10.6298 1.88939 10.5499C2.01496 10.4699 2.11199 10.3672 2.18048 10.2416C2.24898 10.1161 2.28322 9.98478 2.28322 9.8478L2.24898 4.53958L11.6668 13.8889C11.8723 14.1172 12.1291 14.2314 12.4373 14.2314C12.7456 14.2314 13.0081 14.1229 13.225 13.906C13.4419 13.6891 13.5503 13.4266 13.5503 13.1183C13.5503 12.8101 13.4362 12.5533 13.2079 12.3478L3.82432 2.99848Z" fill="#444444"/>
</svg>

<svg viewBox="0 0 36 36" fill="none" xmlns="http://www.w3.org/2000/svg"><path d="M23.55 13.889l9.418-9.35-.034 5.309c0 .205.08.394.24.565.16.171.342.257.548.257h.582c.228-.023.416-.097.565-.223a.73.73 0 0 0 .257-.496V2.04l-.035-.035.069-.41c0-.229-.069-.412-.205-.549a.754.754 0 0 0-.548-.24l-.411.035h-.035L26.12.807a.843.843 0 0 0-.582.24.844.844 0 0 0-.24.582v.548c.023.25.125.45.308.599a.953.953 0 0 0 .617.222h5.17l-9.383 9.35a.993.993 0 0 0-.342.77c0 .309.114.565.342.77.388.412.834.469 1.336.172.068-.068.137-.125.205-.171zm-11.883 8.835l-9.418 9.35.034-5.308a.812.812 0 0 0-.24-.565.732.732 0 0 0-.547-.257H.879a3.973 3.973 0 0 0-.291.085c-.103.035-.194.08-.274.137a.472.472 0 0 0-.171.223 2.516 2.516 0 0 0-.086.274v7.91l.034.035-.068.411c0 .114.017.217.051.308a.665.665 0 0 0 .154.24c.16.16.343.24.548.24l.411-.035h.035l7.876.035c.229 0 .423-.08.582-.24.16-.16.24-.354.24-.582v-.548a.836.836 0 0 0-.308-.6.952.952 0 0 0-.616-.222H3.824l9.384-9.35c.114-.114.2-.233.257-.359a.98.98 0 0 0 .085-.41c0-.15-.028-.292-.085-.429a.85.85 0 0 0-.257-.343 1.157 1.157 0 0 0-.48-.29.953.953 0 0 0-.565 0c-.194.056-.36.153-.496.29zm23.459 3.939a.73.73 0 0 0-.257-.497 1.005 1.005 0 0 0-.565-.222h-.582a.755.755 0 0 0-.548.24.793.793 0 0 0-.24.582l.034 5.308-9.418-9.35a1.147 1.147 0 0 0-.496-.29.953.953 0 0 0-.565 0 1.157 1.157 0 0 0-.48.29.993.993 0 0 0-.342.771c0 .308.114.565.342.77l9.384 9.35h-5.171c-.16 0-.303.029-.428.085a.785.785 0 0 0-.326.292 1.065 1.065 0 0 0-.171.445v.548c0 .16.04.302.12.428.08.125.177.223.29.291a.784.784 0 0 0 .412.103l7.842-.035h.035l.41.035c.206 0 .389-.08.549-.24.136-.137.205-.32.205-.548l-.069-.41h.035v-7.946zM3.824 2.998h5.172a.952.952 0 0 0 .616-.222.836.836 0 0 0 .308-.6V1.63a.793.793 0 0 0-.24-.583.793.793 0 0 0-.582-.24L1.222.842h-.035L.777.807a.754.754 0 0 0-.549.24.666.666 0 0 0-.154.24.873.873 0 0 0-.051.307l.068.411H.074l-.017.035v7.91a.73.73 0 0 0 .257.497c.148.126.337.2.565.223h.617c.137 0 .268-.04.393-.12a.837.837 0 0 0 .394-.702L2.25 4.54l9.418 9.349a.994.994 0 0 0 .77.342c.309 0 .571-.108.788-.325.217-.217.325-.48.325-.788a.994.994 0 0 0-.342-.77l-9.384-9.35z" fill="#444"/></svg>
